!!!COM: Georges Bizet
!!!CNT: Francais
!!!TXO: Francais
!!!OTL: Vous ne Priez pas!
!!!LYR: Casimir Delavigne
!!!ENC: Jacob Pegg
!!!YOR: Georges Bizet: Twenty Melodies. A Kalmus Classic Edition.
!!!YOR: Miami: Warner Bros. Publications,1990. ISBN 0-7692-4977-9
!!!ODT: 1873/
!!NB: Vocal melody and text only encoded.
!!NB: First instance of melodic material only encoded.
**kern	**silbe
*clef G2	*
*k[b-e-a-]	*
*M4/4	*
=3	=3
{4g	{Mon
8g	bien
8g	ai-
[4g	-me/,
16g]}	|}
16r	.
{8g	{dans
=4	=4
4.a-	mes
8a-	dou-
[4g	-leurs,
8g]}	|}
8r	.
=5	=5
{4g	{Je
[4cc	viens
8cc]	|
8cc	de
8dd	la
8cc	ci-
=6	=6
4.bn	-te/
8an	des
[4g	pleurs,
8g]}	|}
8r	.
=7	=7
{8ee-	{Pour
8dd	vous
8cc	de-
8bn	-man-
4a-	-der
8.g	des
16f#	pri-
=8	=8
(4.a-	-e\-
8g)	|
4c}	-res.}
8r	.
{8g	{Vous
=9	=9
8g	me
8g	di-
4g}	-siez,}
8r	.
{8an	{Pen-
8.an	-che/
16an	vers
=10	=10
[2bn	moi:
8bn]}	|}
8r	.
{8g	<<Si
8g	je
=11	=11
[4g	vis,
8g]}	|}
8r	.
{8a-	{je
8a-	prier-
8a-	-ai
8a-	pour
=12	=12
(2an	toi.>>
8b-)}	|}
8r	.
{4b-	{Voi-
=13	=13
4cc-	-la\
8cc-	vos
8cc-	pa-
4ee-	-ro-
8.dd-	-les
16cc-	der-
=14	=14
2cc-	-nie\-
4b-}	-res.}
4r	.
=15	=15
{(4.ee-	{He/-
8ddn)	|
[4ddn	las!
8ddn]	|
8r	.
=16	=16
(4.dd	he/-
8cc)	|
4cc}	-las!}
8r	.
{8cc	{De-
=17	=17
4.cc	-puis
8b-	Que
8dd	j'ai
8dd	quit-
8.dd	-te/
16cc	vos
=18	=18
(4cc	bras,
4b-)}	|}
4r	.
{4a-	{Ja-
=19	=19
4g	-mais
8g	je
8g	n'en-
4f#	-tends
8.cc	vos
16bn	pri-
=20	=20
2dd	-e\-
[4g	-res
8g]}	|}
8r	.
=21	=21
{(4.ee-	{He/-
8dd)	|
[4dd	-las!
8dd]	|
8r	.
=22	=22
(4.ff	he/-
8een)	|
4een}	-las!}
8r	.
{8een	{J'e/-
=23	=23
[4ff	-cou-
16ff]}	-te,}
16r	.
{8ff	{et
8ee-	vous
8ee-	ne
8ee-	pri-
8ee-	-ez
=24	=24
(2dd-	pas!
4cc)}	|}
8r	.
{8cc	{J'e/-
=25	=25
[4b-	-cou-
16b-]}	-te}
16r	.
{8b-	{et
8a-	vous
8a-	ne
8a-	pri-
8a-	-ez
=26	=26
[2g-	pas!
8g-]}	|}
8r	.
{4f#	{He/-
=27	=27
(2gn	-las!
4cc)}	|}
8r	.
{8e-	{J'e/-
=28	=28
[2.a-	-cou-
8a-]}	-te,}
8r	.
=29	=29
{4g	{et
8g	vous
8g	ne
4.g	pri-
8g	-ez
=30	=30
[1g	pas!
=31	=31
4g]}	|}
4r	.
2r	.
*-	*-
